X: 3
T: Free America
T: British Grenadiers
P: Piffero primo b0055
O: safd 026
%R: reel, march
F: http://ancients.sudburymuster.org/mus/ssp/pdf/fyf04F.pdf
Z: 2020 John Chambers <jc:trillian.mit.edu>
M: 2/4
L: 1/16
K: D
(3(ABc |\
d2) (3(ABc d2)e2 | f4 e2fg | a2d2 fedc | d6 (3(ABc |\
d2) (3(ABc d2)e2 | f4 e2fg | a2d2 fedc | d6 a2 |
a3b a2g2 | f2g2 a2a2 | b2b2 agfe | d4 c2 (3(ABc |\
d2)cd e2de | f2ef g2fg | a2d2 fedc | d6 :|


